images/ICONOS/PORQUE/LINKEDIN.svg

<svg width="41" height="41" viewBox="0 0 41 41" fill="none" xmlns="http://www.w3.org/2000/svg">
<circle cx="20.3167" cy="20.5998" r="19.9573" fill="#1723FF"/>
<path d="M26.857 30.9776H30.2321C30.3544 30.9776 30.4717 30.9289 30.5582 30.8423C30.6447 30.7557 30.6933 30.6382 30.6933 30.5156L30.695 23.3722C30.695 19.6386 29.8919 16.7687 25.5364 16.7687C23.8806 16.707 22.3192 17.562 21.4767 18.9897C21.4726 18.9967 21.4663 19.0021 21.4588 19.0051C21.4514 19.0081 21.4431 19.0086 21.4353 19.0065C21.4276 19.0044 21.4207 18.9998 21.4158 18.9934C21.4108 18.987 21.4081 18.9792 21.4081 18.9711V17.5754C21.4081 17.4529 21.3595 17.3353 21.273 17.2487C21.1865 17.162 21.0692 17.1134 20.9468 17.1134H17.7439C17.6216 17.1134 17.5043 17.162 17.4178 17.2487C17.3313 17.3353 17.2827 17.4529 17.2827 17.5754V30.5149C17.2827 30.6375 17.3313 30.755 17.4178 30.8417C17.5043 30.9283 17.6216 30.977 17.7439 30.977H21.1188C21.2411 30.977 21.3584 30.9283 21.4449 30.8417C21.5314 30.755 21.58 30.6375 21.58 30.5149V24.1188C21.58 22.3102 21.9225 20.5587 24.1607 20.5587C26.3672 20.5587 26.3958 22.6282 26.3958 24.2359V30.5155C26.3958 30.6381 26.4443 30.7556 26.5308 30.8422C26.6173 30.9289 26.7347 30.9776 26.857 30.9776ZM9.93945 12.7201C9.93945 14.0907 11.0657 15.2183 12.4338 15.2183C13.8016 15.2182 14.9271 14.0899 14.9271 12.7197C14.9269 11.3495 13.8013 10.222 12.4334 10.222C11.0651 10.222 9.93945 11.3497 9.93945 12.7201ZM10.7419 30.9776H14.1212C14.2436 30.9776 14.3609 30.9289 14.4474 30.8422C14.5339 30.7556 14.5825 30.6381 14.5825 30.5155V17.5754C14.5825 17.4529 14.5339 17.3353 14.4474 17.2487C14.3609 17.162 14.2436 17.1134 14.1212 17.1134H10.7419C10.6196 17.1134 10.5022 17.162 10.4157 17.2487C10.3292 17.3353 10.2807 17.4529 10.2807 17.5754V30.5155C10.2807 30.6381 10.3292 30.7556 10.4157 30.8422C10.5022 30.9289 10.6196 30.9776 10.7419 30.9776Z" fill="white"/>
</svg>

<svg xmlns="http://www.w3.org/2000/svg" width="41" height="41" fill="none"><circle cx="20.317" cy="20.6" r="19.957" fill="#1723FF"/><path fill="#fff" d="M26.857 30.978h3.375a.461.461 0 0 0 .461-.462l.002-7.144c0-3.733-.803-6.603-5.159-6.603a4.524 4.524 0 0 0-4.06 2.22.037.037 0 0 1-.06.004.036.036 0 0 1-.008-.022v-1.396a.462.462 0 0 0-.461-.462h-3.203a.46.46 0 0 0-.461.462v12.94a.463.463 0 0 0 .46.462h3.376a.461.461 0 0 0 .461-.462v-6.396c0-1.809.343-3.56 2.58-3.56 2.207 0 2.236 2.07 2.236 3.677v6.28a.462.462 0 0 0 .461.462ZM9.939 12.72a2.508 2.508 0 0 0 2.495 2.498 2.508 2.508 0 0 0 2.493-2.498 2.508 2.508 0 0 0-2.494-2.498A2.508 2.508 0 0 0 9.94 12.72Zm.803 18.258h3.38a.46.46 0 0 0 .46-.463v-12.94a.462.462 0 0 0-.46-.462h-3.38a.46.46 0 0 0-.461.462v12.94a.462.462 0 0 0 .46.463Z"/></svg>
